/* XPM */
static char *east[] = {
"64 64 6 1",
"a c #563E18",
"b c #E4AB46",
"c c #7B5C25",
"d c #B08436",
"e c #B78938",
"f c #A87E33",
"aaaaaaaaaaaaaaaaaaaaaaaaaaaaaaaaaaaaaaaaaaaaaaaaaaaaaaaaaaaaaaaa",
"aaaaaaaaaaaaaaaaaaaaaaaaaaaaaaaaaaaaaaaaaaaaaaaaaaaaaaaaaaaaaaaa",
"aaaaaaaaaaaaaaaaaaaaaaaaaaaaaaaaaaaaaaaaaaaaaaaaaaaaaaaaaaaaaaaa",
"aaabbbbbbbbbbbbbbbbbbbbbbbbbbbbbcccccccccccccccccccccccccccccaaa",
"aaabbbbbbbbbbbbbbbbbbbbbbbbbbbbbcccccccccccccccccccccccccccccaaa",
"aaabbbbbbbbbbbbbbbbbbbbbbbbbbbbbcccccccccccccccccccccccccccccaaa",
"aaabbbddddeeeeeeeeffffffffddddddddeeeeeeeeffffffffddddddddcccaaa",
"aaabbbdddeeeeeeeeffffffffddddddddeeeeeeeeffffffffddddddddecccaaa",
"aaabbbddeeeeeeeeffffffffddddddddeeeeeeeeffffffffddddddddeecccaaa",
"aaabbbdeeeeeeeeffffffffddddddddeeeeeeeeffffffffddddddddeeecccaaa",
"aaabbbeeeeeeeeffffffffddddddddeeeeeeeeffffffffddddddddeeeecccaaa",
"aaabbbeeeeeeeffffffffddddddddeeeeeeeeffffffffddddddddeeeeecccaaa",
"aaabbbeeeeeeffffffffddddddddeeeeeeeeffffffffddddddddeeeeeecccaaa",
"aaabbbeeeeeffffffffddddddddeeeeeeeeffffffffddddddddeeeeeeecccaaa",
"aaabbbeeeeffffffffddddddddeeeeeeeeffffffffddddddddeeeeeeeecccaaa",
"aaabbbeeeffffffffddddddddeeeeeeeeffffffffddddddddeeeeeeeefcccaaa",
"aaabbbeeffffffffddddddddeeeeeeeeffffffffddddddddeeeeeeeeffcccaaa",
"aaabbbeffffffffddddddddeeeeeeeeffffffffddddddddeeeeeeeefffcccaaa",
"aaabbbffffffffddddddddeeeeeeeeffffffffddddddddeeeeeeeeffffcccaaa",
"aaabbbfffffffddddddddeeeeeeeeffffffffddddddddeeeeeeeefffffcccaaa",
"aaabbbffffffddddddddeeeeeeeeffffffffddddddddeeeeeeeeffffffcccaaa",
"aaabbbfffffddddddddeeeeeeeeffffffffddddddddeeeeeeeefffffffcccaaa",
"aaabbbffffddddddddeeeeeeeeffffffffddddddddeeeeeeeeffffffffcccaaa",
"aaabbbfffddddddddeeeeeeeeffffffffddddddddeeeeeeeeffffffffdcccaaa",
"aaabbbffddddddddeeeeeeeeffffffffddddddddeeeeeeeeffffffffddcccaaa",
"aaabbbfddddddddeeeeeeeeffffffffddddddddeeeeeeeeffffffffdddcccaaa",
"aaabbbddddddddeeeeeeeeffffffffddddddddeeeeeeeeffffffffddddcccaaa",
"aaabbbdddddddeeeeeeeeffffffffddddddddeeeeeeeeffffffffdddddcccaaa",
"aaabbbddddddeeeeeeeeffffffffddddddddeeeeeeeeffffffffddddddcccaaa",
"aaabbbdddddeeeeeeeeffffffffddddddddeeeeeeeeffffffffdddddddcccaaa",
"aaabbbddddeeeeeeeeffffffffddddddddeeeeeeeeffffffffddddddddcccaaa",
"aaabbbdddeeeeeeeeffffffffddddddddeeeeeeeeffffffffddddddddecccaaa",
"aaabbbddeeeeeeeeffffffffddddddddeeeeeeeeffffffffddddddddeecccaaa",
"aaabbbdeeeeeeeeffffffffddddddddeeeeeeeeffffffffddddddddeeecccaaa",
"aaabbbeeeeeeeeffffffffddddddddeeeeeeeeffffffffddddddddeeeecccaaa",
"aaabbbeeeeeeeffffffffddddddddeeeeeeeeffffffffddddddddeeeeecccaaa",
"aaabbbeeeeeeffffffffddddddddeeeeeeeeffffffffddddddddeeeeeecccaaa",
"aaabbbeeeeeffffffffddddddddeeeeeeeeffffffffddddddddeeeeeeecccaaa",
"aaabbbeeeeffffffffddddddddeeeeeeeeffffffffddddddddeeeeeeeecccaaa",
"aaabbbeeeffffffffddddddddeeeeeeeeffffffffddddddddeeeeeeeefcccaaa",
"aaabbbeeffffffffddddddddeeeeeeeeffffffffddddddddeeeeeeeeffcccaaa",
"aaabbbeffffffffddddddddeeeeeeeeffffffffddddddddeeeeeeeefffcccaaa",
"aaabbbffffffffddddddddeeeeeeeeffffffffddddddddeeeeeeeeffffcccaaa",
"aaabbbfffffffddddddddeeeeeeeeffffffffddddddddeeeeeeeefffffcccaaa",
"aaabbbffffffddddddddeeeeeeeeffffffffddddddddeeeeeeeeffffffcccaaa",
"aaabbbfffffddddddddeeeeeeeeffffffffddddddddeeeeeeeefffffffcccaaa",
"aaabbbffffddddddddeeeeeeeeffffffffddddddddeeeeeeeeffffffffcccaaa",
"aaabbbfffddddddddeeeeeeeeffffffffddddddddeeeeeeeeffffffffdcccaaa",
"aaabbbffddddddddeeeeeeeeffffffffddddddddeeeeeeeeffffffffddcccaaa",
"aaabbbfddddddddeeeeeeeeffffffffddddddddeeeeeeeeffffffffdddcccaaa",
"aaabbbddddddddeeeeeeeeffffffffddddddddeeeeeeeeffffffffddddcccaaa",
"aaabbbdddddddeeeeeeeeffffffffddddddddeeeeeeeeffffffffdddddcccaaa",
"aaabbbddddddeeeeeeeeffffffffddddddddeeeeeeeeffffffffddddddcccaaa",
"aaabbbdddddeeeeeeeeffffffffddddddddeeeeeeeeffffffffdddddddcccaaa",
"aaabbbddddeeeeeeeeffffffffddddddddeeeeeeeeffffffffddddddddcccaaa",
"aaabbbdddeeeeeeeeffffffffddddddddeeeeeeeeffffffffddddddddecccaaa",
"aaabbbddeeeeeeeeffffffffddddddddeeeeeeeeffffffffddddddddeecccaaa",
"aaabbbdeeeeeeeeffffffffddddddddeeeeeeeeffffffffddddddddeeecccaaa",
"aaabbbbbbbbbbbbbbbbbbbbbbbbbbbbbcccccccccccccccccccccccccccccaaa",
"aaabbbbbbbbbbbbbbbbbbbbbbbbbbbbbcccccccccccccccccccccccccccccaaa",
"aaabbbbbbbbbbbbbbbbbbbbbbbbbbbbbcccccccccccccccccccccccccccccaaa",
"aaaaaaaaaaaaaaaaaaaaaaaaaaaaaaaaaaaaaaaaaaaaaaaaaaaaaaaaaaaaaaaa",
"aaaaaaaaaaaaaaaaaaaaaaaaaaaaaaaaaaaaaaaaaaaaaaaaaaaaaaaaaaaaaaaa",
"aaaaaaaaaaaaaaaaaaaaaaaaaaaaaaaaaaaaaaaaaaaaaaaaaaaaaaaaaaaaaaaa"
};
