/* XPM */
static char *north_texture[] = {
"64 64 20 1",
"a c #383838",
"b c #000070",
"c c #00007C",
"d c #000088",
"e c #2C2C2C",
"f c #202020",
"g c #0000A4",
"h c #0000BC",
"i c #0000B0",
"j c #000000",
"k c #000098",
"l c #000058",
"m c #000064",
"n c #0000C8",
"o c #000040",
"p c #0000E0",
"q c #0000D4",
"r c #00004C",
"s c #4040FC",
"t c #545454",
"abcccccccccccccccccccbaaddddddddddddddddddddddddddddaabcccccccbe",
"fgggggggggggggggggggggffhhhhhhhhhhhhhhhhhhhhhhhhhhhhffiiiiiiiiif",
"jgggdgcggkckkckkcgcbbljfhghicghkbbkdggdbdghgdkghhgkbjfihgkgiikcj",
"jgkcdkkkccgkgmkkcbccbmjfhhgkkkbklbllcggmbbmbblbddbmbjfiiggckgglj",
"jgdgbnnkccckddcmlcbllmjfjjjjjjjjjjjjjjjjjjjjjjjjjjjjjfigihhigccj",
"jgdcgnnmcccgkkkdbbcllojfgggggggggggggggggggfffffffffffihgigccmlj",
"jgkkiigggkgggkkbbmlmbmjfghhhigkkhkkikkihhggjfggggkkmffikkgcddmmj",
"jggkgiigkcmggkddcmmloojfgihpnighgkkkiigggkgjfgkkdkcmjfikkgbdddmj",
"jgkckggdkckbbdddbccmlojfginhnkigghkkgcgckgcjfgkkkccmjfihgkggddoj",
"jgdddgcccggblmmbmccclojfgiiikkkiggggkdmcccmjfggkcclljfhcckggkloj",
"jkcdgddbkggbbmlmmmcclojfghiiikkihhggmmdccmljfggkcgcljfhchgckkloj",
"jkdkccgdmclcmlmcoloomojfghggiiiihiigmmbgmmojfgcdkclljfhhccmmccoj",
"jkckcmddcmcmcmobbooomojfgiggkhkkgiigkkccllmjfgdddbbmjfhcbmcmccoj",
"jkkcccbmllmcmbmoobomlojfgipnddkkdcccdkdcmmojfggddbbmjfhccblllloj",
"jkckmmbmcmoooooooooooojfghnndddggcddcdbcmlojfgckgllljfjjjjjjjjjj",
"jjjjjjjjjjjjjjjjjjjjjjjfghggkddgggddkmmcmlojfgggkglmjfffffffffff",
"ghigigggggiggggjiiiggkkjgikgdkggggckkcclloojfkgkgkbmjfggggjhhhhh",
"higkghigdggcgkcjiikhhchjgggghgkgggdmbcoomlojfkkcbcbljfgidcjhhgih",
"hikkdggdckkcckkjihhikccjgikghgdcddmccboomoojfkklllmojfgiicjhgiii",
"igkiikkccckccccjihiikkmjgigggdgccmbblllmmlojfkclmllojfgdcljhhhii",
"gdkihicckkcklccjihkckkmjgggkkkkcmlmmlmmlooojfkcmlloojfglmljhhiii",
"ggdkiqckccmmbccjikhcccmjjjjjjjjjjjjjjjjjjjjjfjjjjjjjjjjjjjfhhggk",
"idcdkgkcckmbclljikkmccljfffffffffffffffffffffffffiiiiiiiiffhggkk",
"igdkckckkcbcmcljihkdmlmjfiiiiiiiiiiiiiiiiiiiikgffiningggkjfhikkk",
"iikdikkkkccbllljghcddmljfihighhhihgighicghhhcgljfininngkdjfhhkkk",
"igdcdiimckddblmjgcmbblmjfihginpphqpghgghhggggcljfinnnngdcjfhihgg",
"gkcdgiigkcddblmjkcllllmjfiighqqphpqqicgccgccglljfiigngdgmjfhhhgg",
"ikikkgigmcbbblljjjjjjjjjfihhiinnggqqggcccbgcclljfinggggdmjfhhhii",
"gddggkggmblmloojfffffffffiihiiiggghgggcddcclllmjfinnggdcbjfhgghi",
"gkdgggkcbmlmmlljfiiiiggffigghiddghicggcdddbbblljfinnkkggljfhggii",
"kdkdggcmmlllmomjfiidgkdjfihihiddgggcgggbddlbbbojfiinkkkgljfhhkkc",
"kddcddcmmbccmoojfiggkdkjfihhgiiikgcccggblmlmbbojfiigdiggmjfhddkk",
"kdgkbccbmbccmlojfigkdbmjfihgcgiiggcbcmbbblooloojfiindiikmjfhddcc",
"kgkddcmmlrrbmlojfiididljfigghcggkcbccmmbbmoommojfigngdkkljfhhccc",
"ckkdcccclrrllmojfiiibbmjfichcggccbmcccmmllmmmrojfinggklbmjfhggkk",
"cddcbcccllmlllljfiiiglljfighcggbmmlcccmllllrrrojfingkckbljfhggkd",
"cdmbcmcclmlolmljfikkldmjfigcggcllllmmmmlooooooojfingckkcmjfhkggc",
"ckcmcmblmoolooojfikkilmjfjjjjjjjjjjjjjjjjjjjjjjjfgigcmccmjfhkddc",
"cdkdbcblllomolojfiididljfffffffffffffffffffffffffgiigclmojfhhddc",
"ckdcmbcbooooooojfiiddlmjfggggggggggggggggggggggffgighgcmojfhkkcd",
"jjjjjjjjjjjjjjjjfiicclljfghhhhhhigggggggkdchkgcjfgngghdlojfjjjjj",
"fffffllbbdddcbmffgicccljfihnnhggiinhkkggkcdcdkcjfggggddlojfdkddj",
"fkgihhhhhhhhhhhffggdccmjfihnnniiiihhccccgggkkcmjfgngcbllojfkkccj",
"fghhhhhigihggghjfggklmmjfihhhhqqiiicccccckccbkmjfgidbmlbojfkcbbj",
"fghiiqqihhhkghhjfgkdllljfihhihqqqcgkccbbbdccccmjfggbmbllojfkbclj",
"fhhhiqqhkkghhkijfjjjjjjjfgihihhqqhggkcbbmmlcccmjfdcclllmojfdcblj",
"fhgigiiikkkhgddjfffffffffgginkkhghggggccmmcmlrrjfjjjjjjjjjfdblmj",
"fhhikdiigkkghhgjfhhiggkffggnnkkkigggcckdbmmlloojfffffffffffffffj",
"fhhkghidgiiicggjfhchdkdjfghhhikkhhhgccccmmmlloojfiiiihhhhhhhhhhj",
"fhhhhgdhdiccgdgjfhgiikcjfgiggiiihhhhgcdblmmmblrjfiiggiiiigdhggcj",
"fhghkgghikcrcggjfhhcgcbjfghgggkghhhhgggllllmbbmjfigiqqiiikgggkcj",
"fhikkhphgdgccggjfhiggcgjfghhgghddhhhgggbllmlrrrjfihhqnniiddgkcmj",
"fhghgpspkkgkdcdjfhigcgbjfgghkkcccdgggcccmmllloojfikhknniiggccclj",
"fhihihphgcggrrmjfhgiicmjfgghgddcccdcdllkkbblroojfihikkkggcccclmj",
"fhghiiidddcbrrmjfhhikdmjfgkhhkhccdccdclkkdbbmlmjfiigkkkgcbmcllmj",
"fghiigcckgkkcmmjfhigddcjfghkghgdcbbddllckkcbllojfiikgkkgcbmbcllj",
"fhghiddicggkbcljfhghcccjfghgggkdggbblbllcccmllojfiihidiikcmkkloj",
"fhghgkdcmdggkbmjfhhgmmmjfgggkkcdgggbmbblrrrmooojfhhidgiiikckkcoj",
"figdddgmrmdkkbbjfhigcbljfgigkkhgcggllbbmloolooojfhigdggiikccccoj",
"figbmdmgccklmlljfigmmmljfgihchhglmmmllrrroorloojfhighggcdbbccloj",
"fggddmdlmlmbmbmjfigdbmmjfggihgcklmmmlloobbmoroljfhhhkgccbccbmomj",
"fgkcccccbbbbcccffgdccccffggkgkccccccbmllccccllbffhggckgcccccbbcj",
"adddcccccccccccaaddccccaagndddddcccccccccccccccaahddcccccccccccf",
"ttttttttttttttttttttttttttttttttttttttttttttttttttttttttttttttta"
};
