/* XPM */
static char *south_texture[] = {
"64 64 26 1",
"a c #383838",
"b c #545454",
"c c #484848",
"d c #EC0000",
"e c #D40000",
"f c #A40000",
"g c #E00000",
"h c #C80000",
"i c #BC0000",
"j c #B00000",
"k c #880000",
"l c #640000",
"m c #2C2C2C",
"n c #7C0000",
"o c #980000",
"p c #700000",
"q c #580000",
"r c #400000",
"s c #4C0000",
"t c #202020",
"u c #5C5C5C",
"v c #646464",
"w c #404040",
"x c #343434",
"y c #4C4C4C",
"z c #303030",
"aaaaaaaaaaaaaaaaaaaaaaaaaaaaaaaaaaaaaaaaaaaaaaaaaaaaaaaaaaaaaaaa",
"babcccccbccccccbcacccccccbbbbbbcccccccccbbbbbbbccccaaaccbbccccca",
"addeeeeeeeeefccbddeeeeeeeeeeeeeeeeeefcabddddggggggeeeeehhhhiiifc",
"cdhjjekfekhflmcbdikikikinioioininihfpmcaefhjhjjhphnhjhkjfnhohfnm",
"cefnfkfopfkplmcbeikkfkpffpoffpofpfopqmcbeffnlfkpkfnkffkfnkfqfplm",
"cenffpoffpfqrmcbekifkfpfkfpfpknfponpqmccepflkflfpfnfkflfonfnfpsm",
"chfnkonfpkfprmcbiikfkkofpkpfkponkpfprmacipfnfklfppffpfkffnfqfksm",
"cinffpfopopqrmccihkfpfpfpfpokpnfponpqmacioflkfnkpknfkflfnkfnfprm",
"cifpkqpnqpkprmabooppskppkpspkpkpskpprmacippqppskspqkspsklspkpkrm",
"cnlllrrrrrrrrmacnllqqqqqqqqqrrrrrrrrrmackllllllllllqqqqqqqqqrrrm",
"ccmmmmmmmmtttmabcmmmmmtttttmmttttmmmmmcbammmmmmmmmmmtttttmmmmmmm",
"baaaaccccaaaaacacccccccaaabcccaaccccccbacbbbbuvvubbccwawbabcccba",
"deeeiiiiiiiiiiifcbcddeeeeeehhhhhhhiiiiiiiiiiiiiiiiiifcwbddeeeeee",
"jkkjonjnokjljkfracbdpjhnilkikkhofknkfkfkfnhlhkoihohfracadhnjkjkj",
"kfkfnkklfklkffprmccejpfnffkflfplkfnfnflffklfkfpkfpfpracbhjnfknfo",
"pffkolfnkkolfkprmacepfkokklkkpfklfknlnkkfqknfpfpffpprmwchnfffnfn",
"fkkfknnknfolflprmacepffnflkflpflkfnknflfkqflfpkpfpfprmachjnfnfon",
"pflfpknolflkffprmcbejqfnfklkqkplfknqnflkqkflkfpkfpfprtacjnffqfnk",
"pjlpsnpopopqopprmcbjfpkqpopklpkqpopolkpkkqoppkspopkprtwbjfnpqpop",
"rssssssssssssrrracbflllllllllllllqqqqqqqqqqqqqqqqqqrrtcaflrlrrlr",
"mmmtmmmtttmmmttmacacaxmmmmmmxxaaxmmmtttttmmmttttmmmmmacbcmmmmmmm",
"bbcaacbabaccaaaaccbcccwawawawcccbabcwaaawwccbwaawcccbcbabwawbccc",
"bddeeeeeeeiiiiiiiiiiiiiiiiifcbbddeeeeeeeeeeiiiiiiiiiiiiiiiiiiifc",
"bdkjinininjkjkjhkjkjkijljhpracbdipefjkfjkjojnlfkpkfnkfokfnkfqfrm",
"adjkfofnpkffkokfklfpfklkfpjrmcueioflflkpoklflkflfpfnfkflfonfnprm",
"cilffpkqflfpfkoflkfpkfklnfprmbveinfnflfpofnfnfklfppfopokffnfqprm",
"cijkfsfqpkfkpnfnklnflfklfpqrmbuepfpoklkopflklkfnkpknfkflfnkfnprm",
"biplfsknflfqflfklkfklflknnjrmcbehpfpfkfkpflfqppsfsfqfsffklspkprm",
"chflpppqpsppklkppkpplpopopprmabhfpopkqpppplkpksfqpfspksfqfsfpprm",
"cfollllllllllllllsssssssssrrmabfllllllllllllllqqqqqqqqqqqqrqnqrm",
"ccammmmmmmmmmmmmmmmmaaammmmmmcccmmmmmmmmtttttmaaamtttmmmmmmmmmmm",
"bbbbbccacaaacbvvbbbcccwwaawaawbcccbabcbcwawawcbbccwawcccbabcccba",
"iiiiiiiiiifcabeeeeeeeeiiiiiiiiiiiiiiiiifcbbhdeeeeeeeeeiiiiiiiiii",
"fjfjohjjhfracaeflfpfflfkffpfklfflffpfnfracbefnfpfflfnknfpfkfnfpf",
"fnkfofnfkprmcbelfnkfnfopfkkpkkfklfpkflfrabbefqfpfklfkfnkkoponokp",
"knfonfnofprmcaelffnofpfpfkfqfskkfkpofnfrabvefnfpfkfkffnfpokfonfp",
"fknfofonkpracbeolfnfnqokkkpkflfklkopkfnrabvenffpflffnnfnfkooknpk",
"fknfnfnofpraccelfnqofpkkfkfpkslolfopfnfracbhfnffpfkknfnfpokfnkfp",
"ppkoppopppraccolffqfnpfpflfqklfklopoflnrmcbhfqfpffkfkfnfpoponffp",
"rrsssssssrrmccflllllllllqqqqqqqqqqqqqqrrmccflllllllllllllllqqqqr",
"mmmmmmmmmmmmcbcmttttmmaaamtttttmmmmmmmmmacccmmmmaacammtttmmmmmmm",
"bcbacaaccaaaaccaaacccccbbccaaabcccbacacaccbcbabcbuvbyccabcbcbaba",
"adeeeeeeeiiiiiiiiiiiiiiiiiiiiiifabaddeeeeeeeeiiiiiiiiiiiiiiiiifc",
"befkkflffnofnfpkflfnfkflflffnpfracbdfflflfqfpfqfkqokpfknfnopkfrm",
"ceflfklfkonflkqfolfqkoklfnfnfpormccekflklnqkqonfqflfpkpfknoflkrm",
"ceklflkplflfknkflokkqnfsoqklkkprmacekfllkfnqfnqofqfppfpfnfpklfrm",
"aefkfklfknofnfqkflfqkfqofnfffpnrmaceflfklfqfponnqklfnkokonpfkfrm",
"beflkflflflflfpfllfqknfnklolkpfrtabefllflnqfqfqoqflkpfpnfnoklprm",
"ahflflkpkonfkkkfolknqlfsfponfpfrtabhpflklfqnfnqopklfpfpfnopflfrm",
"bflllllllllssssssssssssssssssssrmcbflllllllllqqqqqsssssssssssrrm",
"acmmmmmmmmmmaaamttttmmmttttmmttmmcacmmmmmmtttmxaxmtmmmmtttmmmmmm",
"bababcbccccbvvbcbabcbcwaaawcbccaccbabccccccccybbbyccccazttzaccbc",
"eeeeeiiiiiiiiiiiifcbcddeeeeeeeeiiiiiiiiiiiiiiifcabdeeeeeiiiiiiii",
"nfqfflolfnhnflfnfrmccefffflfsfnflflfoflflfqfplracbeflkfqfpfpflfp",
"fnnfnflonlfqnlklkrmccenfpflpsnonfklkolnkpkqflfrxcbelfqfpfpkfpfks",
"fnqnflolnfnqfklonrmcwennpflnnfqfsfflflflkqkklprmcbelfppffkpkplpk",
"noqollflfnfqnplflrmcwefspflfsfnolflknlflfkqpolrmcbeflqfkppfpflpf",
"lfnflflkflfnqkfnkrmcwesfflfnpkqnsflflnnlkpqkplrmccelfkfpfkppqfpf",
"lfnnloololnqflflormccesfpflnnksolksfnlfklfqfqkrmacelfqpqfpfpqlfs",
"noqfllklnnfqflpknrmcbhfspflfsklflfplflnflkpklkrmachllqfqfpfpflfp",
"ssssssssssssssssrrmccfrrrrrssssssssssssssssssrrtcbfrrsssssssssss",
"mmmmmmmmmmmmmmmmmmmcbcaxxmmmmmmmmmmmmmmtttttmtttaccmmmmmmtttttmm",
"ababaaacccccbbaccccbbbbbcccbcccbccacccwaawaawcwawbccabccccwawccc",
"bbbbbbbbbbbbbbbbbbbbbbbbbbbbbbbbbbbbbbbbbbbbbbbbbbbbbbbbbbbbbbbb"
};
