/* XPM */
static char *west_texture[] = {
"64 64 22 1",
"a c #1F1F1F",
"b c #3B3B3B",
"c c #575757",
"d c #535353",
"e c #4F4F4F",
"f c #4B4B4B",
"g c #D3D3D3",
"h c #DFDFDF",
"i c #838383",
"j c #ABABAB",
"k c #B7B7B7",
"l c #C7C7C7",
"m c #474747",
"n c #8F8F8F",
"o c #6B6B6B",
"p c #7B7B7B",
"q c #676767",
"r c #5F5F5F",
"s c #9B9B9B",
"t c #737373",
"u c #EFEFEF",
"v c #3F3F3F",
"abababababababababababababababababababababababababababababababab",
"cdcecececefghhhghghhhghghhhabijkglgglgkljicammmmmmmmmmdecececece",
"dcddcdddcdmhglgkggglggkgglnabilknjinnnnijebabonninnnpoqmmmfmmmfm",
"nninnninadfhllkgkllkllkkgnrabjgjnjnjijnjicbabnghhhghkkjninnninnn",
"ggggkjniacmhgjjsjnjjjjsjjpdabnknnijjjjintebabihhklkghhhghglggglg",
"jjjjsjptadmuksjjjjsjnjijjodabmjnjjinsnjocdbabngkjnjnjjsnnjnjijns",
"ksssjnpoafmugjijnjnsssnnjneabmpnijnjjijtbbbabihknjisinnjinsnjsns",
"kjikisrcabmulnsnjjsnpnnjnrcabmmnjjsnnnjobbbabnhjjispjspnjijjnpjs",
"sjjnstmfaaflkjsjijnsisnnjodaafdmpbbbbbbbbaabbthhnjiistsnjnnpjjtn",
"nnintdmmabmjujsjnnnnnnijicpaabmbbbbbbbabaaammmllnnnnsssinjnjjijn",
"tottefbbaafngnjnnpnnjijnjocbabmbaaaaaaababafdmljnjijnintoqrrqrqr",
"dcmmmaaaabvthjispppjsnipnoqbabmmfftpnjsjjstbefknotqrqcdddmfmfmmf",
"aaaaabababdmhlnnnssinjpnjnebabvtjjghugggsodadmnoqrdfmmbbbbbababa",
"ababaababbemjgnjipnjnisnitebaabjkhgkijnjitbabbbbbbbbbbbaaaaaaaaa",
"bbbbbbbbbbffnljijsipnpnjnecbabvjhkjnnninnebabaabaabaabavvbbbbbbb",
"dfbbbbbbabdmtlijsnjsjijijetmaafjujnijnjijdbabmcdccamfmmfmmmmmmmv",
"ssnsnsnssaacmlksnisstnnnnocdaafjuinjjijnnebabojhgcmdpssnsssnssss",
"glgglgkjtvacmnknjnpnnijnonofaafjljjnijnjicbabjgljamplghhhghhhghg",
"jsnjnjjotbadmtsjijjijtnodtdfaafjljnottodcdbabgljiafsggkkjkkkjkkk",
"jnsnjinotbamdmsnttotddtetdmaaabsntnobbbbbbbarhjnnamshjjsjnjnsiss",
"jnnjijjocbamdmqdcdcmmmbaaaaaaaantbbbaaaaaaaarhjjiafsgjnsisnstini",
"jnjnjintebamdmababaaaaaaaaaaaabbebaaaaabaabanhjjnamnlijsjnjnsiss",
"njtpnnjocbabecfbaaaaaaaaeffeffmnnnjjnnnpcavqkhjipafiljisnsisppnn",
"niipnjiqmbabihhhgljjnrbfqpjjkllhhhghhhlsqabphlsjtamikjsnjijnppnn",
"nnjjinnrfbabgljnssjnsbefpguhhlkklklklklocabnhjsnoafolijnnsnijnjn",
"sjinjitdbbabhsnsjjnsjadfshlnjijsijsjsniqmabnujijcafmntrcddqqopni",
"qrqrqdmbbbabgjjjijnjrafmsujsjnpjjninjijcmabiujjncadabbmmmmfmmdcd",
"dfmbbbaaaaabhijnjjnprafmsuijnsjinpnjnnnefabnuijneacbaaaaaaaaabbm",
"aaaaaaabaffmhjsijnjprabmsunnjinpnpninjnefabiujjicacbbbbbbbabaaaa",
"mqqonsninnmahjtsnjiiqbamnujninpnpnjpnijdmabnunjjeacmvmedecddcbbb",
"qnkhghggljtahjjipnjiqbamnhksnjnjtpnpnjicbabngnnjeafjhgknrcmmfmmd",
"qjgllkjjsjvaunsjpnjsomafpgljintnppjnjiiebabnhjnndafhinkhhghhhnbd",
"qhkjjijnjitausjnjjijofabelhjjsnjijppnjocbavngnjneafhnijjinjniibe",
"qgksijnjijtausisjnjiqdaacjujjsnnpnppjitmbafngjjicamhjjinjjijnrbm",
"qhjnjnjjpjeahjjjnnnjqeabenukjnjinsijnjrmabvngsnjeafljnjjinjnjrbm",
"qhjjnnssjicahkpspjjsrcaafogkjnpsinsnnnrbaafngnjecafljsjnjinjscbm",
"qgknjjnjijdalhisjnnnrcaafdkhjijnjnjinqdbabmpjpebbbvjjnjsnjnijcbb",
"qhkjsnjnjneakhpjinnjocaabenkjnpqrdmfbbbbabvcbbbbvmatemdcdcddcdbb",
"qhjnjjijpjdasgspjjinocaabdmnnrcmbaaaaaaaabmemmedcdcaaaaaaaaaaaab",
"qgknisjnjicaphjsjinjqeaaaembabaaaababaababmdcmmfmmmfmmbbbbbbbbbb",
"qhkjjisjnjdacunsnnjiqdaabmmmbbbbbfmfvefmfmmcdpppppppppppppppptbe",
"qhjnnjijnocamujnipnjocaaavqpppppppppppppnnnsjkjlklklkklklklklpbe",
"qlkjjnjnjeaaeusnjnniqcbaabplklklkllklklklkghhuuuuuuuuuuughggnqaf",
"qgknjnjjicabvunjpsijqebaaaplluuuuuhhuuhuuuuuhhggkkklkjklkklkpcae",
"qkkjnjinneabmhjjijnnrcbaaapllklklkljkljklkkjjssnnjnjinnjijnjocbb",
"flinjitotdabmginjijnocbaaaqkhknninnnjijjnnsjjjnpsijjsijnjjsnodab",
"mkjjsncddaavmkjinjnitdbaaamlhknnnjnsnsjinsjjisnsnnpissnjijnjocbb",
"mpppcdcddabbvssjinnoqdbaaaakhgjjinnnpnijnsijspinjinjnptnpsnntdab",
"mbaaacddcabvfpqrqqrqddbaaabjggnijnjinjnppssijnjnnjinpnnijntiocab",
"dcdmbaaaabbvbbbbbbbbbbbaaaangkjnnjijpnispsnspjinpnnnijnpnnipocab",
"mfmmmfmbaabfbbaaaaaaaaaaaabisottottojnjjinpinnpnnjijnnjinnnsocab",
"mpjjjjnnqffdbbaabaabaabababdmbbababactopnpppppppppppppppppppqeab",
"mjlghghhkjjnorcfbbbbbbbbbbvcmmbbbbbbafddcdcdcdcdddcdcddcdcdddabb",
"mjgjjnkghhhkjjjjjjjsnnippoqqecmmmvmbbababababababaaaaaaaaaaaaabv",
"mjhjjjkjnjkhhhghghghhhhlglkjjjjjifdmbbbbbbbbbaabababababababbbmf",
"mjhjijppjsnpjijnjnjjijnjjjlghggkibmefmmbbbabbbbbbbbbbbbbbbbbvmfd",
"mjljjjnjnnnsjinjptnjpninjijnjjjpqabefjghspffmdddmmvmmmvmmvmmecdd",
"mjljijppsjijjsipjpnpsijnjnjijjsqdabmmhjjhhhgkddfkhhghhhggljspfmd",
"mjiqrqrqrqqrqrqqrqrqrqqrqrqrqrqcdbabmgkjkjkkkrcphsjjnjijsjnjgsad",
"mnqbbbbbbbbbbbbbbbbbbbbbbbbbbbbbbbaafkjkksrsiqmkjnjijjjijnjijdac",
"mbaaaaaaaaaaaaaaaaaaaaaaaaaaaaaaaaaaebmbeqrqqrfhsssjjnsjssjnneac",
"dfbbbabaabaabaababaabaabaabaabaababavecbbaaaaabdcdddddcedcdcecad",
"dcedmmmffmffbbbbbbbbbbbbbbbbbbbbbbbbbecedbbbbbbedaaaaaaaaaaaaaac",
"bbbbbbbbbbbbbbbbbbbbbbbbbbbbbbbbbbbbbbbbbbbbbbbbbbbbbbbbbbbbbbbb"
};
